X:292
T: Flower of the Vale
N: O'Farrell's Pocket Companion v.3 (Sky ed. p.131)
N: "Irish"
M: 6/8
L: 1/8
R: jig
Q: 320
K: Am
A| EAA A2G| EAA A2B| GAG BAG| dBG G3|
EAA A2G| EAA A2a| e>dc dcB| ecA A2 :|
A| cde/f/ gag| gfe gab| GAG BAG| dBG G2 c/B/|
ABc/d/ edc| def a3| e>dc dcB| ecA A2 :|
